assets/Mechanical arm/Flat/mechanical_arm_flat.svg

<svg width="32" height="32" viewBox="0 0 32 32" fill="none" xmlns="http://www.w3.org/2000/svg">
<path d="M9.65847 12L12.9578 18.4678C13.1134 18.6051 13.2626 18.7496 13.4048 18.9008C14.503 15.4777 17.7121 13 21.5 13C26.1944 13 30 16.8056 30 21.5C30 26.1911 26.1998 29.9946 21.51 30H8.60001C4.96001 30 2.01001 27.05 2.01001 23.41C2.01001 22.4369 2.22086 21.513 2.59936 20.6817L7.23438 6.35938C7.56251 5.45312 8.51563 3.57812 10.4219 3.57812C13.9375 3.57812 16.0156 6.20312 16.0156 7.84375C16.0156 9.14563 15.3446 10.0845 14.9573 10.4191C14.7717 11.3175 14.0022 12 13.078 12H9.65847Z" fill="#9B9B9B"/>
<path d="M9 11C9.55228 11 10 10.5523 10 10C10 9.44772 9.55228 9 9 9C8.44772 9 8 9.44772 8 10C8 10.5523 8.44772 11 9 11Z" fill="#D3D3D3"/>
<path d="M25 21.5C25 23.433 23.433 25 21.5 25C19.567 25 18 23.433 18 21.5C18 19.567 19.567 18 21.5 18C23.433 18 25 19.567 25 21.5Z" fill="#D3D3D3"/>
<path d="M11.1124 7.07257C10.5843 6.80957 10 7.29405 10 8H13L11.1124 7.07257Z" fill="#636363"/>
<path d="M13.5998 8.07422C13.9319 8.29376 14.1719 8.7588 14.1719 9.51563C14.1719 10.2 13.9424 10.5417 13.7107 10.7256C13.4575 10.9265 13.1235 11 12.8438 11H7.25623C7.58798 11.5983 8.20892 12 8.92198 12H12.8501C13.2729 11.9989 13.8497 11.8919 14.3323 11.5088C14.3463 11.4978 14.3601 11.4865 14.3738 11.4751C14.7588 11.1081 15 10.5812 15 10C15 9.08165 14.4087 8.31013 13.5998 8.07422Z" fill="#636363"/>
<path d="M4.4375 23.498C4.4375 21.564 6.00537 19.9961 7.93944 19.9961C9.87352 19.9961 11.4414 21.564 11.4414 23.498C11.4414 25.4321 9.87352 27 7.93944 27C6.00537 27 4.4375 25.4321 4.4375 23.498ZM7.93944 20.9961C6.55766 20.9961 5.4375 22.1163 5.4375 23.498C5.4375 24.8798 6.55766 26 7.93944 26C9.32123 26 10.4414 24.8798 10.4414 23.498C10.4414 22.1163 9.32123 20.9961 7.93944 20.9961Z" fill="#636363"/>
<path d="M12.9972 18.5028C12.9847 18.4916 12.9722 18.4805 12.9596 18.4694L12.9577 18.4678L12.2961 17.1708C11.8749 16.9309 11.4189 16.7269 10.9532 16.561C10.0041 16.2231 8.97902 16.0312 8.0625 16.0312C6.33048 16.0312 4.75792 16.7103 3.5322 17.7992L2.6214 20.6136C3.65172 18.5349 5.71137 17.0312 8.0625 17.0312C8.85007 17.0312 9.76161 17.1982 10.6178 17.5031C11.328 17.756 11.976 18.0951 12.4746 18.4899C12.2508 19.2658 12.1461 20.1374 12.1577 21.0406C12.1767 22.5042 12.5012 24.0897 13.1612 25.5567C13.9745 27.3647 15.3055 29.0036 17.2022 30H21.4687C17.6572 30 15.2712 27.8097 14.0732 25.1464C13.4714 23.8088 13.1749 22.3591 13.1577 21.0277C13.1476 20.2505 13.2327 19.5267 13.3999 18.8957C13.2719 18.7597 13.1381 18.6292 12.999 18.5045L12.9972 18.5028Z" fill="#636363"/>
</svg>

<svg xmlns="http://www.w3.org/2000/svg" width="32" height="32" fill="none"><path fill="#9B9B9B" d="m9.658 12 3.3 6.468c.155.137.305.282.447.433A8.5 8.5 0 1 1 21.51 30H8.6a6.59 6.59 0 0 1-6-9.32L7.233 6.36c.329-.906 1.282-2.78 3.188-2.78 3.515 0 5.594 2.624 5.594 4.265 0 1.302-.671 2.24-1.059 2.575-.185.899-.955 1.581-1.879 1.581h-3.42Z"/><path fill="#D3D3D3" d="M9 11a1 1 0 1 0 0-2 1 1 0 0 0 0 2ZM25 21.5a3.5 3.5 0 1 1-7 0 3.5 3.5 0 0 1 7 0Z"/><path fill="#636363" d="M11.112 7.073C10.584 6.81 10 7.294 10 8h3l-1.888-.927ZM13.6 8.074c.332.22.572.685.572 1.442 0 .684-.23 1.026-.461 1.21-.254.2-.588.274-.867.274H7.256c.332.598.953 1 1.666 1h3.928c.423-.001 1-.108 1.482-.491l.042-.034c.385-.367.626-.894.626-1.475 0-.918-.591-1.69-1.4-1.926ZM4.438 23.498a3.502 3.502 0 1 1 7.003 0 3.502 3.502 0 0 1-7.004 0Zm3.501-2.502a2.502 2.502 0 1 0 0 5.004 2.502 2.502 0 0 0 0-5.004Z"/><path fill="#636363" d="M12.997 18.503a5.972 5.972 0 0 0-.037-.034l-.002-.001-.662-1.297a8.469 8.469 0 0 0-1.343-.61c-.949-.338-1.974-.53-2.89-.53-1.733 0-3.305.68-4.53 1.768l-.912 2.815c1.03-2.08 3.09-3.583 5.442-3.583.787 0 1.699.167 2.555.472.71.253 1.358.592 1.857.987-.224.776-.329 1.647-.317 2.55.019 1.464.343 3.05 1.003 4.517.814 1.808 2.145 3.447 4.041 4.443h4.267c-3.812 0-6.198-2.19-7.396-4.854a10.524 10.524 0 0 1-.915-4.118 7.986 7.986 0 0 1 .242-2.132 6.606 6.606 0 0 0-.401-.392l-.002-.001Z"/></svg>
